svg/u1f192.svg

<svg viewBox="0 0 128 128" xmlns="http://www.w3.org/2000/svg">
  <g>
    <path d="M116,4H12c-4.42,0-8,3.58-8,8v104c0,4.42,3.58,8,8,8h104c4.42,0,8-3.58,8-8V12 C124,7.58,120.42,4,116,4z" fill="#427687"/>
    <path d="M109.7,4H11.5C7.37,4.03,4.03,7.37,4,11.5v97.9c-0.01,4.14,3.34,7.49,7.48,7.5c0.01,0,0.01,0,0.02,0 h98.1c4.14,0.01,7.49-3.34,7.5-7.48c0-0.01,0-0.01,0-0.02V11.5c0.09-4.05-3.13-7.41-7.18-7.5C109.85,4,109.77,4,109.7,4z" fill="#8CAFBF"/>
    <path d="M39.7,12.9c0-2.3-1.6-3-10.8-2.7c-7.7,0.3-11.5,1.2-13.8,4 s-2.9,8.5-3,15.3c0,4.8,0,9.3,2.5,9.3c3.4,0,3.4-7.9,6.2-12.3C26.2,17.8,39.7,15.9,39.7,12.9z" opacity="0.5" fill="#B4E1ED" enable-background="new "/>
  </g>
  <g>
    <path d="M22.84,53.55c-2.35,0-4.17,0.95-5.46,2.84c-1.29,1.9-1.93,4.54-1.93,7.93 c0,7.05,2.46,10.58,7.39,10.58c2.07,0,4.57-0.55,7.51-1.67v5.63c-2.42,1.08-5.11,1.62-8.09,1.62c-4.28,0-7.56-1.4-9.83-4.19 c-2.27-2.79-3.4-6.8-3.4-12.02c0-3.29,0.56-6.17,1.67-8.64s2.71-4.37,4.8-5.69c2.09-1.32,4.53-1.98,7.34-1.98 c2.86,0,5.73,0.74,8.62,2.23l-2.01,5.45c-1.1-0.56-2.21-1.05-3.32-1.47S23.91,53.55,22.84,53.55z" fill="#FAFAFA"/>
    <path d="M61.64,64.2c0,5.24-1.17,9.26-3.52,12.07c-2.35,2.81-5.71,4.22-10.09,4.22s-7.74-1.41-10.09-4.22 c-2.35-2.81-3.52-6.85-3.52-12.12c0-5.26,1.18-9.29,3.53-12.06c2.35-2.78,5.72-4.17,10.12-4.17s7.75,1.4,10.08,4.2 C60.48,54.92,61.64,58.95,61.64,64.2z M40.78,64.2c0,3.53,0.61,6.2,1.82,7.98s3.02,2.68,5.43,2.68c4.84,0,7.25-3.56,7.25-10.67 c0-7.13-2.4-10.69-7.21-10.69c-2.41,0-4.23,0.9-5.45,2.69C41.39,58,40.78,60.66,40.78,64.2z" fill="#FAFAFA"/>
    <path d="M91.09,64.2c0,5.24-1.17,9.26-3.52,12.07c-2.35,2.81-5.71,4.22-10.09,4.22s-7.74-1.41-10.09-4.22 c-2.35-2.81-3.52-6.85-3.52-12.12c0-5.26,1.18-9.29,3.53-12.06c2.35-2.78,5.72-4.17,10.12-4.17s7.75,1.4,10.08,4.2 C89.93,54.92,91.09,58.95,91.09,64.2z M70.23,64.2c0,3.53,0.61,6.2,1.82,7.98c1.21,1.79,3.02,2.68,5.43,2.68 c4.84,0,7.25-3.56,7.25-10.67c0-7.13-2.4-10.69-7.21-10.69c-2.41,0-4.23,0.9-5.45,2.69C70.85,58,70.23,60.66,70.23,64.2z" fill="#FAFAFA"/>
    <path d="M94.63,80.06V48.43h6.71v26.09h11.85v5.54H94.63z" fill="#FAFAFA"/>
  </g>
</svg>

<svg viewBox="0 0 128 128" xmlns="http://www.w3.org/2000/svg">
  <defs/>
  <path d="M116,4 L12,4 C7.58,4 4,7.58 4,12 L4,116 C4,120.42 7.58,124 12,124 L116,124 C120.42,124 124,120.42 124,116 L124,12 C124,7.58 120.42,4 116,4 Z" fill="#427687"/>
  <path d="M109.7,4 L11.5,4 C7.37,4.03 4.03,7.37 4,11.5 L4,109.4 C3.99,113.54 7.34,116.89 11.48,116.9 C11.49,116.9 11.49,116.9 11.5,116.9 L109.6,116.9 C113.74,116.91 117.09,113.56 117.1,109.42 C117.1,109.41 117.1,109.41 117.1,109.4 L117.1,11.5 C117.19,7.45 113.97,4.09 109.92,4 C109.85,4 109.77,4 109.7,4 Z" fill="#8CAFBF"/>
  <path d="M39.7,12.9 C39.7,10.6 38.1,9.9 28.9,10.2 C21.2,10.5 17.4,11.4 15.1,14.2 C12.8,17 12.2,22.7 12.1,29.5 C12.1,34.3 12.1,38.8 14.6,38.8 C18,38.8 18,30.9 20.8,26.5 C26.2,17.8 39.7,15.9 39.7,12.9 Z" fill="#B4E1ED" opacity="0.5"/>
  <path d="M22.84,53.55 C20.49,53.55 18.67,54.5 17.38,56.39 C16.09,58.29 15.45,60.93 15.45,64.32 C15.45,71.37 17.91,74.9 22.84,74.9 C24.91,74.9 27.41,74.35 30.35,73.23 L30.35,78.86 C27.93,79.94 25.24,80.48 22.26,80.48 C17.98,80.48 14.7,79.08 12.43,76.29 C10.16,73.5 9.03,69.49 9.03,64.27 C9.03,60.98 9.59,58.1 10.7,55.63 C11.81,53.16 13.41,51.26 15.5,49.94 C17.59,48.62 20.03,47.96 22.84,47.96 C25.7,47.96 28.57,48.7 31.46,50.19 L29.45,55.64 C28.35,55.08 27.24,54.59 26.13,54.17 C25.02,53.75 23.91,53.55 22.84,53.55 Z" fill="#FAFAFA"/>
  <path d="M61.64,64.2 C61.64,69.44 60.47,73.46 58.12,76.27 C55.77,79.08 52.41,80.49 48.03,80.49 C43.65,80.49 40.29,79.08 37.94,76.27 C35.59,73.46 34.42,69.42 34.42,64.15 C34.42,58.89 35.6,54.86 37.95,52.09 C40.3,49.31 43.67,47.92 48.07,47.92 C52.47,47.92 55.82,49.32 58.15,52.12 C60.48,54.92 61.64,58.95 61.64,64.2 Z M40.78,64.2 C40.78,67.73 41.39,70.4 42.6,72.18 C43.81,73.96 45.62,74.86 48.03,74.86 C52.87,74.86 55.28,71.3 55.28,64.19 C55.28,57.06 52.88,53.5 48.07,53.5 C45.66,53.5 43.84,54.4 42.62,56.19 C41.39,58 40.78,60.66 40.78,64.2 Z" fill="#FAFAFA"/>
  <path d="M91.09,64.2 C91.09,69.44 89.92,73.46 87.57,76.27 C85.22,79.08 81.86,80.49 77.48,80.49 C73.1,80.49 69.74,79.08 67.39,76.27 C65.04,73.46 63.87,69.42 63.87,64.15 C63.87,58.89 65.05,54.86 67.4,52.09 C69.75,49.31 73.12,47.92 77.52,47.92 C81.92,47.92 85.27,49.32 87.6,52.12 C89.93,54.92 91.09,58.95 91.09,64.2 Z M70.23,64.2 C70.23,67.73 70.84,70.4 72.05,72.18 C73.26,73.97 75.07,74.86 77.48,74.86 C82.32,74.86 84.73,71.3 84.73,64.19 C84.73,57.06 82.33,53.5 77.52,53.5 C75.11,53.5 73.29,54.4 72.07,56.19 C70.85,58 70.23,60.66 70.23,64.2 Z" fill="#FAFAFA"/>
  <path d="M94.63,80.06 L94.63,48.43 L101.34,48.43 L101.34,74.52 L113.19,74.52 L113.19,80.06 L94.63,80.06 Z" fill="#FAFAFA"/>
</svg>
